public/images/icons/src/Bin.svg

<?xml version="1.0" encoding="utf-8"?>
<!-- Generated by IcoMoon.io -->
<!DOCTYPE svg PUBLIC "-//W3C//DTD SVG 1.1//EN" "http://www.w3.org/Graphics/SVG/1.1/DTD/svg11.dtd">
<svg version="1.1" xmlns="http://www.w3.org/2000/svg" xmlns:xlink="http://www.w3.org/1999/xlink" width="32" height="32" viewBox="0 0 32 32">
<path fill="#444" d="M5.333 11.733h21.333v2.133h-21.333zM5.333 7.467h21.333v2.133h-21.333zM10.667 5.333h10.667v2.133h-10.667zM9.6 13.867h12.8v12.8h-12.8z"></path>
</svg>

<?xml version="1.0" encoding="utf-8"?> <!-- Generator: IcoMoon.io --> <!DOCTYPE svg PUBLIC "-//W3C//DTD SVG 1.1//EN" "http://www.w3.org/Graphics/SVG/1.1/DTD/svg11.dtd"> <svg width="32" height="32" viewBox="0 0 32 32" version="1.1" xmlns="http://www.w3.org/2000/svg" xmlns:xlink="http://www.w3.org/1999/xlink" xmlns:sketch="http://www.bohemiancoding.com/sketch/ns" fill="#000000"> <g><path d="M 5.333,11.733L 26.667,11.733L 26.667,13.867L 5.333,13.867zM 5.333,7.467L 26.667,7.467L 26.667,9.6L 5.333,9.6zM 10.667,5.333L 21.333,5.333L 21.333,7.467L 10.667,7.467zM 9.6,13.867L 22.4,13.867L 22.4,26.667L 9.6,26.667z"></path></g></svg>
